X: 24144
T: Looking At A Rainbow Through A Dirty Window
R: waltz
M: 3/4
K: Amajor
AB|:ce c2 AB|G3A GE|F6-|F3 EAB|
ce c2 AB|G3A GE|A6-|1 A3 EAB:|2 A4 AG ]|
|:F2 c2 AG|F2 D2 AG|FE FG AB|c3 BAG|
F2 c2 AG|F2 D2 AG|FE FG AB|1 A4 AG:|2 A4||

